src/assets/icons/weeks,simple,17.svg

<svg width="48" height="48" viewBox="0 0 48 48" fill="none" xmlns="http://www.w3.org/2000/svg">
<rect opacity="0.2" x="5" y="5" width="38" height="38" rx="4" fill="black"/>
<path d="M5 13C5 9.22876 5 7.34315 6.17157 6.17157C7.34315 5 9.22876 5 13 5H35C38.7712 5 40.6569 5 41.8284 6.17157C43 7.34315 43 9.22876 43 13V15H5V13Z" fill="black"/>
<path d="M20.0007 20.5455H16.532L12.2109 23.2812V26.554L16.2081 24.0483H16.3104V38H20.0007V20.5455ZM24.8395 38H28.6491L35.8935 23.6051V20.5455H23.6463V23.5625H32.0753V23.6818L24.8395 38Z" fill="black"/>
</svg>

<svg xmlns="http://www.w3.org/2000/svg" width="48" height="48" fill="none" viewBox="0 0 48 48">
  <rect width="38" height="38" x="5" y="5" fill="#000" opacity=".2" rx="4"/>
  <path fill="#000" d="M5 13c0-3.771 0-5.657 1.172-6.828C7.343 5 9.229 5 13 5h22c3.771 0 5.657 0 6.828 1.172C43 7.343 43 9.229 43 13v2H5v-2zM20 20.546h-3.468l-4.321 2.735v3.273l3.997-2.506h.102V38H20V20.546zM24.84 38h3.81l7.244-14.395v-3.06H23.646v3.017h8.43v.12L24.84 38z"/>
</svg>
